%
(Header)
(Generated by gcodetools from Inkscape.)
(Using default header. To add your own header create file "header" in the output dir.)
M3
(Header end.)
G21 (All units in mm)

(Start cutting path id: path4422)
(test)
(Change tool to Default tool)

G00 Z 5.0000
G00 X 166.0765 Y 236.6458

G01 Z -0.1250 F 100.0000(Penetrate)
G02 X 162.1959 Y 236.5966 Z -0.1250 I -1.9715 J 2.4348 F 400.0000
G02 X 143.8378 Y 251.2228 Z -0.1250 I 409.2537 J 532.5061
G02 X 125.1885 Y 266.6923 Z -0.1250 I 3425.7942 J 4148.9739
G03 X 120.6810 Y 268.1920 Z -0.1250 I -4.1670 J -5.0006
G03 X 116.3548 Y 266.2297 Z -0.1250 I 0.3404 J -6.5004
G02 X 99.4233 Y 248.8968 Z -0.1250 I -3857.3825 J 3751.1222
G02 X 82.6935 Y 232.4330 Z -0.1250 I -479.3676 J 470.3810
G02 X 78.8290 Y 232.0766 Z -0.1250 I -2.1581 J 2.2711
G02 X 77.5829 Y 235.7521 Z -0.1250 I 1.7064 J 2.6274
G02 X 85.8204 Y 257.7314 Z -0.1250 I 632.9095 J -224.6699
G02 X 94.7697 Y 280.2484 Z -0.1250 I 5004.5207 J -1976.0137
G03 X 94.8032 Y 284.9987 Z -0.1250 I -6.0436 J 2.4178
G03 X 91.6000 Y 288.5067 Z -0.1250 I -6.0770 J -2.3325
G02 X 69.8834 Y 299.2533 Z -0.1250 I 2375.5267 J 4827.7371
G02 X 49.0556 Y 310.0767 Z -0.1250 I 299.2262 J 601.2613
G02 X 47.5224 Y 313.6420 Z -0.1250 I 1.4930 J 2.7543
G02 X 50.6330 Y 315.9629 Z -0.1250 I 3.0262 J -0.8110
G02 X 74.0820 Y 314.9206 Z -0.1250 I -18.0940 J -671.3599
G02 X 98.2624 Y 313.3673 Z -0.1250 I -332.8199 J -5370.2197
G03 X 102.7905 Y 314.8034 Z -0.1250 I 0.4319 J 6.4949
G03 X 105.1370 Y 318.9339 Z -0.1250 I -4.0962 J 5.0588
G02 X 108.6469 Y 342.9085 Z -0.1250 I 5325.5209 J -767.4061
G02 X 112.5044 Y 366.0616 Z -0.1250 I 664.2997 J -98.7811
G02 X 115.4215 Y 368.6214 Z -0.1250 I 3.0809 J -0.5688
G02 X 118.5899 Y 366.3803 Z -0.1250 I 0.1638 J -3.1287
G02 X 124.8448 Y 343.7568 Z -0.1250 I -644.0928 J -190.2533
G02 X 130.8397 Y 320.2799 Z -0.1250 I -5210.2376 J -1342.9610
G03 X 133.6048 Y 316.4172 Z -0.1250 I 6.3105 J 1.5963
G03 X 138.2582 Y 315.4619 Z -0.1250 I 3.5454 J 5.4590
G02 X 162.1441 Y 319.5324 Z -0.1250 I 915.8280 J -5302.0006
G02 X 185.3559 Y 323.0184 Z -0.1250 I 111.3334 J -662.3109
G02 X 188.6919 Y 321.0352 Z -0.1250 I 0.4111 J -3.1059
G02 X 187.5396 Y 317.3292 Z -0.1250 I -2.9249 J -1.1226
G02 X 167.9563 Y 304.3895 Z -0.1250 I -379.9771 J 553.7769
G02 X 147.4809 Y 291.4332 Z -0.1250 I -2887.2744 J 4540.2182
G03 X 144.6617 Y 287.6098 Z -0.1250 I 3.4682 J -5.5084
G03 X 145.1912 Y 282.8890 Z -0.1250 I 6.2874 J -1.6850
G02 X 156.4436 Y 261.4300 Z -0.1250 I -4759.4922 J -2509.4103
G02 X 166.9318 Y 240.4314 Z -0.1250 I -595.4913 J -310.5497
G02 X 166.0765 Y 236.6458 Z -0.1250 I -2.8268 J -1.3507
G01 X 166.0765 Y 236.6458 Z -0.1250
G00 Z 5.0000

(End cutting path id: path4422)


(Start cutting path id: path4418)
(test)
(Change tool to Default tool)

G00 Z 5.0000
G00 X 216.6753 Y 183.7734

G01 Z -0.1250 F 100.0000(Penetrate)
G02 X 215.0442 Y 179.6907 Z -0.1250 I -5.9251 J -0.0000 F 400.0000
G02 X 208.3141 Y 174.9796 Z -0.1250 I -14.9926 J 14.2550
G02 X 199.7364 Y 172.3760 Z -0.1250 I -15.4451 J 35.4532
G02 X 188.1284 Y 171.3370 Z -0.1250 I -11.6081 J 64.3282
G02 X 176.5203 Y 172.3760 Z -0.1250 I 0.0000 J 65.3671
G02 X 167.9427 Y 174.9796 Z -0.1250 I 6.8674 J 38.0568
G02 X 161.2126 Y 179.6907 Z -0.1250 I 8.2625 J 18.9661
G02 X 159.5815 Y 183.7734 Z -0.1250 I 4.2940 J 4.0827
G02 X 164.5040 Y 191.2872 Z -0.1250 I 8.1959 J -0.0000
G02 X 188.1284 Y 196.2097 Z -0.1250 I 23.6244 J -54.2285
G02 X 211.7528 Y 191.2872 Z -0.1250 I 0.0000 J -59.1510
G02 X 216.6753 Y 183.7734 Z -0.1250 I -3.2734 J -7.5138
G01 X 216.6753 Y 183.7734 Z -0.1250
G00 Z 5.0000

(End cutting path id: path4418)


(Start cutting path id: path4416)
(test)
(Change tool to Default tool)

G00 Z 5.0000
G00 X 85.6669 Y 185.1431

G01 Z -0.1250 F 100.0000(Penetrate)
G02 X 79.1141 Y 169.3232 Z -0.1250 I -22.3727 J -0.0000 F 400.0000
G02 X 63.2942 Y 162.7704 Z -0.1250 I -15.8199 J 15.8199
G02 X 47.4742 Y 169.3232 Z -0.1250 I 0.0000 J 22.3727
G02 X 40.9214 Y 185.1431 Z -0.1250 I 15.8199 J 15.8199
G02 X 47.4742 Y 200.9630 Z -0.1250 I 22.3727 J -0.0000
G02 X 63.2942 Y 207.5158 Z -0.1250 I 15.8199 J -15.8199
G02 X 79.1141 Y 200.9630 Z -0.1250 I -0.0000 J -22.3727
G02 X 85.6669 Y 185.1431 Z -0.1250 I -15.8199 J -15.8199
G01 X 85.6669 Y 185.1431 Z -0.1250
G00 Z 5.0000

(End cutting path id: path4416)


(Start cutting path id: path10)
(test)
(Change tool to Default tool)

G00 Z 5.0000
G00 X 195.2501 Y 13.9776

G01 Z -0.1250 F 100.0000(Penetrate)
G01 X 125.2260 Y 67.0933 Z -0.1250 F 400.0000
G01 X 56.3533 Y 12.4928 Z -0.1250
G01 X 85.2307 Y 95.5034 Z -0.1250
G01 X 12.0196 Y 144.1327 Z -0.1250
G01 X 99.8910 Y 142.3203 Z -0.1250
G01 X 123.5168 Y 226.9754 Z -0.1250
G01 X 148.9469 Y 142.8448 Z -0.1250
G01 X 236.7595 Y 146.5352 Z -0.1250
G01 X 164.6047 Y 96.3520 Z -0.1250
G01 X 195.2501 Y 13.9776 Z -0.1250
G00 Z 5.0000

(End cutting path id: path10)



(Footer)
M5
G00 X0.0000 Y0.0000
M2
(Using default footer. To add your own footer create file "footer" in the output dir.)
(end)
%